;FLAVOR:Repetier
;TIME:1846
;MINX:117.623
;MINY:119.209
;MINZ:0.16
;MAXX:152.377
;MAXY:150.847
;MAXZ:24.96
;TARGET_MACHINE.NAME:Unknown
;Generated with Cura_SteamEngine 5.9.0
M82 ;absolute extrusion mode
M82
M140 S60
M104 S215
G28
G90
G1 Z5 F6000
G1 X375 Y0
G1 Y-18
G92 E0
M190 S60
M109 S215
G1 E33 F3600
G92 E0
G1 E10 F130
G92 E0
G1 E-2 F3600
G1 X400 F1800
G1 Y5
G1 X375
G1 Z5 F12000
G1 Y0
M120 P20 S50
G92 E0
G92 E0
G1 F1500 E-1.4
;LAYER_COUNT:156
;LAYER:0
M107
G0 F3600 X142.064 Y150.739 Z0.16
;TYPE:SKIRT
G1 F1500 E0
G1 F1800 X141.165 Y150.838 E0.02407
G1 X139.921 Y150.847 E0.05717
G1 X129.159 Y150.698 E0.34355
G1 X128.337 Y150.672 E0.36543
G1 X127.692 Y150.595 E0.38272
G1 X126.934 Y150.4 E0.40354
G1 X125.904 Y149.898 E0.43403
G1 X125.18 Y149.334 E0.45845
G1 X124.58 Y148.692 E0.48183
G1 X124.277 Y148.251 E0.49607
G1 X123.823 Y147.461 E0.52031
G1 X121.321 Y142.935 E0.65792
G1 X118.559 Y137.877 E0.81126
G1 X118.132 Y137.058 E0.83584
G1 X117.84 Y136.34 E0.85646
G1 X117.715 Y135.85 E0.86992
G1 X117.623 Y134.859 E0.8964
G1 X117.695 Y134.087 E0.91703
G1 X117.843 Y133.445 E0.93456
G1 X118.269 Y132.502 E0.96209
G1 X118.837 Y131.527 E0.99212
G1 X124.509 Y122.135 E1.28406
G1 X124.984 Y121.382 E1.30774
G1 X125.429 Y120.806 E1.32711
G1 X126.029 Y120.246 E1.34895
G1 X126.659 Y119.826 E1.3691
G1 X127.329 Y119.516 E1.38874
G1 X127.96 Y119.319 E1.40633
G1 X128.838 Y119.222 E1.42983
G1 X130.148 Y119.209 E1.46469
G1 X140.82 Y119.351 E1.74868
G1 X141.648 Y119.378 E1.77072
G1 X142.435 Y119.484 E1.79185
G1 X143.103 Y119.681 E1.81038
G1 X143.851 Y120.04 E1.83246
G1 X144.49 Y120.479 E1.85309
G1 X145.118 Y121.048 E1.87564
G1 X145.473 Y121.482 E1.89056
G1 X145.985 Y122.305 E1.91635
G1 X148.966 Y127.672 E2.0797
G1 X151.44 Y132.16 E2.21606
G1 X151.861 Y132.957 E2.24004
G1 X152.158 Y133.695 E2.26121
G1 X152.326 Y134.432 E2.28132
G1 X152.377 Y135.189 E2.30151
G1 X152.326 Y135.819 E2.31833
G1 X152.103 Y136.713 E2.34285
G1 X151.764 Y137.476 E2.36506
G1 X151.311 Y138.264 E2.38925
G1 X148.499 Y142.965 E2.535
G1 X145.512 Y147.915 E2.68883
G1 X145.025 Y148.69 E2.71319
G1 X144.642 Y149.191 E2.72997
G1 X143.994 Y149.81 E2.75381
G1 X143.475 Y150.167 E2.77057
G1 X142.861 Y150.475 E2.78885
G1 X142.064 Y150.739 E2.81119
G0 F3600 X141.982 Y150.345
G1 F1800 X141.121 Y150.44 E2.83424
G1 X139.927 Y150.447 E2.86601
G1 X129.172 Y150.298 E3.15221
G1 X128.35 Y150.272 E3.17409
G1 X127.791 Y150.208 E3.18906
G1 X127.074 Y150.024 E3.20876
G1 X126.12 Y149.558 E3.23701
G1 X125.426 Y149.018 E3.26041
G1 X124.91 Y148.465 E3.28053
G1 X124.607 Y148.024 E3.29477
G1 X124.173 Y147.268 E3.31796
G1 X121.672 Y142.743 E3.45553
G1 X118.913 Y137.691 E3.6087
G1 X118.502 Y136.906 E3.63227
G1 X118.228 Y136.241 E3.65141
G1 X118.103 Y135.751 E3.66487
G1 X118.024 Y134.86 E3.68867
G1 X118.085 Y134.177 E3.70691
G1 X118.224 Y133.573 E3.7234
G1 X118.615 Y132.703 E3.74878
G1 X119.179 Y131.734 E3.77862
G1 X124.847 Y122.348 E4.07036
G1 X125.301 Y121.627 E4.09304
G1 X125.746 Y121.051 E4.1124
G1 X126.253 Y120.577 E4.13087
G1 X126.829 Y120.188 E4.14936
G1 X127.448 Y119.898 E4.16755
G1 X128.041 Y119.713 E4.18408
G1 X128.882 Y119.62 E4.2066
G1 X130.143 Y119.609 E4.24015
G1 X140.808 Y119.751 E4.52395
G1 X141.597 Y119.775 E4.54495
G1 X142.322 Y119.868 E4.5644
G1 X142.99 Y120.065 E4.58293
G1 X143.624 Y120.37 E4.60165
G1 X144.263 Y120.809 E4.62228
G1 X144.81 Y121.304 E4.64191
G1 X145.133 Y121.693 E4.65536
G1 X145.635 Y122.499 E4.68063
G1 X148.616 Y127.865 E4.84396
G1 X151.086 Y132.347 E4.98013
G1 X151.507 Y133.144 E5.00411
G1 X151.769 Y133.786 E5.02256
G1 X151.927 Y134.461 E5.04101
G1 X151.978 Y135.157 E5.05958
G1 X151.927 Y135.787 E5.0764
G1 X151.737 Y136.551 E5.09734
G1 X151.398 Y137.314 E5.11956
G1 X150.968 Y138.059 E5.14245
G1 X148.157 Y142.758 E5.28814
G1 X145.173 Y147.703 E5.44182
G1 X144.706 Y148.449 E5.46524
G1 X144.364 Y148.903 E5.48036
G1 X143.767 Y149.48 E5.50246
G1 X143.248 Y149.837 E5.51922
G1 X142.684 Y150.116 E5.53596
G1 X141.982 Y150.345 E5.55561
G0 F3600 X141.899 Y149.951
G1 F1800 X141.077 Y150.042 E5.57761
G1 X139.933 Y150.047 E5.60805
G1 X129.184 Y149.898 E5.89409
G1 X128.393 Y149.874 E5.91515
G1 X127.89 Y149.82 E5.92861
G1 X127.21 Y149.646 E5.94728
G1 X126.334 Y149.217 E5.97324
G1 X125.717 Y148.743 E5.99394
G1 X125.24 Y148.238 E6.01242
G1 X124.937 Y147.797 E6.02666
G1 X124.523 Y147.074 E6.04883
G1 X122.023 Y142.551 E6.18634
G1 X119.267 Y137.505 E6.33932
G1 X118.871 Y136.752 E6.36196
G1 X118.616 Y136.142 E6.37955
G1 X118.491 Y135.652 E6.39301
G1 X118.423 Y134.893 E6.41329
G1 X118.475 Y134.267 E6.43
G1 X118.606 Y133.699 E6.44551
G1 X118.961 Y132.904 E6.46868
G1 X119.521 Y131.941 E6.49832
G1 X125.186 Y122.56 E6.78991
G1 X125.619 Y121.869 E6.81161
G1 X126.021 Y121.341 E6.82927
G1 X126.479 Y120.907 E6.84605
G1 X127.001 Y120.549 E6.8629
G1 X127.567 Y120.28 E6.87957
G1 X128.122 Y120.107 E6.89504
G1 X128.926 Y120.018 E6.91656
G1 X130.138 Y120.009 E6.94881
G1 X140.797 Y120.151 E7.23245
G1 X141.549 Y120.172 E7.25247
G1 X142.211 Y120.252 E7.27021
G1 X142.819 Y120.427 E7.28705
G1 X143.397 Y120.7 E7.30406
G1 X144.036 Y121.139 E7.32469
G1 X144.502 Y121.56 E7.3414
G1 X144.825 Y121.949 E7.35485
G1 X145.285 Y122.693 E7.37812
G1 X148.266 Y128.058 E7.54143
G1 X150.733 Y132.535 E7.67745
G1 X151.138 Y133.298 E7.70043
G1 X151.38 Y133.88 E7.7172
G1 X151.528 Y134.493 E7.73398
G1 X151.579 Y135.125 E7.75085
G1 X151.528 Y135.755 E7.76767
G1 X151.371 Y136.389 E7.78505
G1 X151.051 Y137.114 E7.80614
G1 X150.625 Y137.854 E7.82886
G1 X147.814 Y142.551 E7.97451
G1 X144.834 Y147.491 E8.12801
G1 X144.384 Y148.211 E8.15061
G1 X144.084 Y148.617 E8.16404
G1 X143.54 Y149.15 E8.1843
G1 X143.021 Y149.507 E8.20106
G1 X142.509 Y149.756 E8.21621
G1 X141.899 Y149.951 E8.23325
G0 F3600 X141.817 Y149.557
G1 F1800 X141.033 Y149.644 E8.25424
G1 X139.939 Y149.647 E8.28335
G1 X129.196 Y149.498 E8.56923
G1 X128.436 Y149.476 E8.58946
G1 X127.933 Y149.422 E8.60292
G1 X127.347 Y149.268 E8.61904
G1 X126.547 Y148.876 E8.64275
G1 X125.961 Y148.426 E8.66241
G1 X125.57 Y148.011 E8.67758
G1 X125.267 Y147.57 E8.69181
G1 X124.873 Y146.88 E8.71296
G1 X122.374 Y142.359 E8.85041
G1 X119.621 Y137.318 E9.00324
G1 X119.239 Y136.595 E9.02499
G1 X119.004 Y136.043 E9.04096
G1 X118.879 Y135.553 E9.05441
G1 X118.822 Y134.923 E9.07124
G1 X118.865 Y134.357 E9.08635
G1 X118.987 Y133.827 E9.10082
G1 X119.307 Y133.105 E9.12183
G1 X119.863 Y132.148 E9.15128
G1 X125.525 Y122.772 E9.44272
G1 X125.939 Y122.109 E9.46352
G1 X126.299 Y121.629 E9.47948
G1 X126.708 Y121.235 E9.49459
G1 X127.175 Y120.909 E9.50975
G1 X127.686 Y120.662 E9.52485
G1 X128.203 Y120.501 E9.53926
G1 X128.97 Y120.416 E9.55979
G1 X130.133 Y120.409 E9.59074
G1 X140.786 Y120.551 E9.87422
G1 X141.538 Y120.572 E9.89424
G1 X142.103 Y120.637 E9.90937
G1 X142.651 Y120.79 E9.92451
G1 X143.172 Y121.031 E9.93978
G1 X143.77 Y121.438 E9.95903
G1 X144.194 Y121.816 E9.97414
G1 X144.517 Y122.205 E9.9876
G1 X144.935 Y122.887 E10.00888
G1 X147.916 Y128.251 E10.17217
G1 X150.38 Y132.723 E10.30802
G1 X150.77 Y133.455 E10.33009
G1 X150.992 Y133.977 E10.34519
G1 X151.13 Y134.528 E10.3603
G1 X151.18 Y135.096 E10.37547
G1 X151.139 Y135.663 E10.3906
G1 X151.005 Y136.228 E10.40605
G1 X150.704 Y136.915 E10.42601
G1 X150.282 Y137.649 E10.44853
G1 X147.471 Y142.344 E10.59414
G1 X144.495 Y147.279 E10.74748
G1 X144.062 Y147.973 E10.76924
G1 X143.762 Y148.379 E10.78268
G1 X143.311 Y148.822 E10.7995
G1 X142.846 Y149.147 E10.81459
G1 X142.334 Y149.396 E10.82974
G1 X141.817 Y149.557 E10.84415
G0 F3600 X141.732 Y149.164
G1 F1800 X141.032 Y149.244 E10.8629
G1 X139.945 Y149.247 E10.89182
G1 X129.207 Y149.098 E11.17756
G1 X128.479 Y149.078 E11.19694
G1 X127.976 Y149.024 E11.2104
G1 X127.488 Y148.892 E11.22385
G1 X126.759 Y148.534 E11.24546
G1 X126.25 Y148.149 E11.26245
G1 X125.9 Y147.784 E11.2759
G1 X125.597 Y147.343 E11.29014
G1 X125.223 Y146.687 E11.31023
G1 X122.725 Y142.167 E11.44764
G1 X119.975 Y137.131 E11.60032
G1 X119.593 Y136.408 E11.62208
G1 X119.392 Y135.944 E11.63553
G1 X119.267 Y135.454 E11.64899
G1 X119.221 Y134.95 E11.66245
G1 X119.255 Y134.446 E11.67589
G1 X119.368 Y133.953 E11.68935
G1 X119.653 Y133.306 E11.70816
G1 X120.205 Y132.355 E11.73742
G1 X125.864 Y122.984 E12.0287
G1 X126.278 Y122.321 E12.0495
G1 X126.579 Y121.915 E12.06295
G1 X126.94 Y121.561 E12.0764
G1 X127.352 Y121.268 E12.08986
G1 X127.805 Y121.044 E12.1033
G1 X128.288 Y120.894 E12.11676
G1 X128.972 Y120.816 E12.13508
G1 X130.128 Y120.809 E12.16584
G1 X140.775 Y120.951 E12.44916
G1 X141.496 Y120.97 E12.46835
G1 X141.999 Y121.023 E12.48181
G1 X142.487 Y121.155 E12.49526
G1 X142.948 Y121.362 E12.50871
G1 X143.506 Y121.739 E12.52662
G1 X143.886 Y122.072 E12.54007
G1 X144.209 Y122.461 E12.55352
G1 X144.585 Y123.081 E12.57282
G1 X147.566 Y128.444 E12.73608
G1 X150.027 Y132.912 E12.8718
G1 X150.403 Y133.615 E12.89302
G1 X150.605 Y134.078 E12.90646
G1 X150.732 Y134.567 E12.9199
G1 X150.781 Y135.071 E12.93337
G1 X150.749 Y135.575 E12.94681
G1 X150.638 Y136.069 E12.96028
G1 X150.357 Y136.716 E12.97905
G1 X149.939 Y137.443 E13.00137
G1 X147.128 Y142.137 E13.14695
G1 X144.155 Y147.068 E13.30016
G1 X143.74 Y147.735 E13.32106
G1 X143.44 Y148.141 E13.33449
G1 X143.079 Y148.496 E13.34796
G1 X142.668 Y148.789 E13.36139
G1 X142.215 Y149.014 E13.37485
G1 X141.732 Y149.164 E13.38831
G1 F1500 E11.98831
;MESH:KNOB 3D.STL
G0 F3600 X141.116 Y146.678
G0 X140.787 Y145.631
G0 X140.685 Y145.453
;TYPE:WALL-INNER
G1 F1500 E13.38831
G1 F1800 X146.9 Y135.115 E13.70926
G1 X141.169 Y124.756 E14.02427
G1 X129.33 Y124.597 E14.33931
G1 X123.096 Y134.919 E14.66016
G1 X128.794 Y145.29 E14.97502
G1 X140.685 Y145.453 E15.29145
G0 F3600 X140.927 Y145.828
;TYPE:WALL-OUTER
G1 F1800 X147.326 Y135.182 E15.62195
G1 X147.345 Y135.093 E15.62437
G1 X141.447 Y124.433 E15.94854
G1 X141.343 Y124.359 E15.95193
G1 X129.106 Y124.194 E16.27756
G1 X122.67 Y134.851 E16.60883
G1 X122.651 Y134.94 E16.61125
G1 X128.521 Y145.624 E16.93561
G1 X128.615 Y145.688 E16.93864
G1 X140.841 Y145.855 E17.26398
G1 X140.927 Y145.828 E17.26638
G0 F3600 X141.03 Y145.657
G0 X140.467 Y145.07
;TYPE:SKIN
G1 F1800 X129.02 Y144.909 E17.57099
G1 X123.535 Y134.929 E17.874
G1 X129.54 Y124.978 E18.18325
G1 X140.941 Y125.135 E18.48664
G1 X146.461 Y135.103 E18.78982
G1 X140.467 Y145.07 E19.09929
G0 F3600 X129.441 Y144.714
G1 F1800 X128.775 Y144.048 E19.12435
G1 X128.705 Y143.978
G0 F3600 X130.015 Y144.723
G1 F1800 X128.085 Y142.792 E19.19699
G1 X128.015 Y142.722
G0 F3600 X127.394 Y141.537
G1 F1800 X130.588 Y144.731 E19.31718
G0 F3600 X131.163 Y144.739
G1 F1800 X126.704 Y140.281 E19.48495
G1 X126.634 Y140.211
G0 F3600 X126.014 Y139.025
G1 F1800 X131.736 Y144.747 E19.70027
G0 F3600 X132.31 Y144.755
G1 F1800 X125.324 Y137.769 E19.96315
G1 X125.254 Y137.699
G0 F3600 X124.634 Y136.513
G1 F1800 X132.884 Y144.763 E20.27359
G0 F3600 X133.457 Y144.771
G1 F1800 X123.944 Y135.258 E20.63156
G0 F3600 X123.924 Y134.672
G1 F1800 X134.031 Y144.779 E21.01189
G0 F3600 X134.605 Y144.787
G1 F1800 X124.137 Y134.319 E21.40579
G0 F3600 X124.35 Y133.966
G1 F1800 X135.178 Y144.795 E21.81326
G0 F3600 X135.752 Y144.803
G1 F1800 X124.563 Y133.613 E22.23432
G0 F3600 X124.775 Y133.261
G1 F1800 X136.326 Y144.811 E22.66896
G0 F3600 X136.899 Y144.819
G1 F1800 X124.988 Y132.908 E23.11717
G0 F3600 X125.201 Y132.555
G1 F1800 X137.473 Y144.827 E23.57896
G0 F3600 X138.047 Y144.835
G1 F1800 X125.414 Y132.202 E24.05433
G0 F3600 X125.627 Y131.849
G1 F1800 X138.621 Y144.843 E24.54329
G0 F3600 X139.195 Y144.852
G1 F1800 X125.84 Y131.496 E25.04585
G0 F3600 X126.052 Y131.144
G1 F1800 X139.768 Y144.859 E25.56196
G0 F3600 X140.342 Y144.867
G1 F1800 X126.265 Y130.791 E26.09165
G0 F3600 X126.479 Y130.439
G1 F1800 X140.563 Y144.523 E26.62162
G0 F3600 X140.776 Y144.17
G1 F1800 X126.692 Y130.086 E27.1516
G0 F3600 X126.904 Y129.733
G1 F1800 X140.988 Y143.816 E27.68155
G0 F3600 X141.201 Y143.463
G1 F1800 X127.117 Y129.38 E28.21151
G0 F3600 X127.33 Y129.027
G1 F1800 X141.413 Y143.11 E28.74145
G0 F3600 X141.625 Y142.756
G1 F1800 X127.543 Y128.674 E29.27135
G0 F3600 X127.756 Y128.321
G1 F1800 X141.838 Y142.404 E29.80126
G0 F3600 X142.05 Y142.05
G1 F1800 X127.969 Y127.969 E30.33113
G0 F3600 X128.181 Y127.616
G1 F1800 X142.263 Y141.697 E30.86101
G0 F3600 X142.475 Y141.344
G1 F1800 X128.394 Y127.263 E31.39087
G0 F3600 X128.607 Y126.91
G1 F1800 X142.688 Y140.991 E31.92073
G0 F3600 X142.9 Y140.637
G1 F1800 X128.82 Y126.557 E32.45055
G0 F3600 X129.033 Y126.204
G1 F1800 X143.113 Y140.284 E32.98038
G0 F3600 X143.325 Y139.931
G1 F1800 X129.246 Y125.852 E33.51016
G0 F3600 X129.459 Y125.499
G1 F1800 X143.538 Y139.578 E34.03995
G0 F3600 X143.75 Y139.224
G1 F1800 X129.707 Y125.181 E34.56838
G0 F3600 X130.28 Y125.189
G1 F1800 X143.962 Y138.871 E35.08323
G0 F3600 X144.175 Y138.518
G1 F1800 X130.854 Y125.197 E35.58449
G0 F3600 X131.427 Y125.205
G1 F1800 X144.387 Y138.164 E36.07215
G0 F3600 X144.6 Y137.812
G1 F1800 X132.001 Y125.212 E36.54627
G0 F3600 X132.574 Y125.22
G1 F1800 X144.812 Y137.458 E37.00678
G0 F3600 X145.025 Y137.105
G1 F1800 X133.147 Y125.228 E37.45372
G0 F3600 X133.722 Y125.236
G1 F1800 X145.237 Y136.752 E37.88705
G0 F3600 X145.45 Y136.399
G1 F1800 X134.295 Y125.244 E38.3068
G0 F3600 X134.869 Y125.252
G1 F1800 X145.662 Y136.045 E38.71294
G0 F3600 X145.874 Y135.692
G1 F1800 X135.442 Y125.26 E39.10549
G0 F3600 X136.016 Y125.268
G1 F1800 X146.087 Y135.339 E39.48446
G0 F3600 X146.004 Y134.69
G1 F1800 X136.589 Y125.275 E39.83874
G0 F3600 X137.162 Y125.283
G1 F1800 X145.302 Y133.423 E40.14504
G1 X145.372 Y133.493
G0 F3600 X144.6 Y132.155
G1 F1800 X137.737 Y125.292 E40.4033
G0 F3600 X138.31 Y125.299
G1 F1800 X143.898 Y130.887 E40.61357
G1 X143.968 Y130.957
G0 F3600 X143.195 Y129.619
G1 F1800 X138.884 Y125.307 E40.77581
G0 F3600 X139.457 Y125.315
G1 F1800 X142.493 Y128.351 E40.89005
G1 X142.563 Y128.421
G0 F3600 X141.791 Y127.083
G1 F1800 X140.03 Y125.323 E40.9563
G0 F3600 X140.604 Y125.33
G1 F1800 X141.089 Y125.816 E40.97457
G0 F3600 X141.067 Y125.826
M104 S215
;MESH:NONMESH
G0 F600 X141.067 Y125.826 Z0.32
G0 F3600 X140.524 Y145.158
G0 X140.778 Y145.609
;TIME_ELAPSED:58.534231
;LAYER:1
M106 S255
;TYPE:WALL-INNER
;MESH:KNOB 3D.STL
G1 F2700 X147.082 Y135.112 E41.30037
G1 X141.258 Y124.598 E41.62018
G1 X129.242 Y124.439 E41.93993
G1 X122.917 Y134.92 E42.26566
G1 X128.697 Y145.445 E42.58516
G1 X140.778 Y145.609 E42.90664
G0 F5400 X141.041 Y145.95
;TYPE:WALL-OUTER
G1 F1800 X147.492 Y135.204 E43.24014
G1 X147.482 Y135.012 E43.24525
G1 X141.548 Y124.296 E43.57118
G1 X141.405 Y124.2 E43.57577
G1 X129.148 Y124.037 E43.90193
G1 X128.951 Y124.143 E43.90788
G1 X122.507 Y134.826 E44.23985
G1 X122.514 Y135.017 E44.24493
G1 X128.384 Y145.705 E44.56939
G1 X128.467 Y145.793 E44.57261
G1 X128.625 Y145.844 E44.57703
G1 X140.86 Y146.011 E44.90261
G1 X141.041 Y145.95 E44.90769
G0 F5400 X141.143 Y145.779
G0 X140.559 Y145.226
;TYPE:SKIN
G1 F1800 X128.924 Y145.065 E45.2173
G1 X123.355 Y134.929 E45.52503
G1 X129.456 Y124.822 E45.83916
G1 X141.033 Y124.975 E46.14722
G1 X146.641 Y135.103 E46.45527
G1 X140.559 Y145.226 E46.7695
G0 F5400 X140.086 Y145.019
G1 F1800 X140.996 Y144.11 E46.80372
G1 X141.066 Y144.04
G0 F5400 X141.848 Y142.692
G1 F1800 X139.528 Y145.012 E46.89102
G0 F5400 X138.97 Y145.004
G1 F1800 X142.699 Y141.275 E47.03134
G1 X142.769 Y141.205
G0 F5400 X143.55 Y139.858
G1 F1800 X138.412 Y144.996 E47.22468
G0 F5400 X137.854 Y144.989
G1 F1800 X144.402 Y138.441 E47.47108
G1 X144.472 Y138.371
G0 F5400 X145.254 Y137.023
G1 F1800 X137.296 Y144.981 E47.77054
G0 F5400 X136.738 Y144.973
G1 F1800 X146.105 Y135.606 E48.12301
G0 F5400 X146.28 Y134.866
G1 F1800 X136.18 Y144.965 E48.50305
G0 F5400 X135.622 Y144.958
G1 F1800 X146.078 Y134.502 E48.89651
G0 F5400 X145.877 Y134.137
G1 F1800 X135.064 Y144.95 E49.30339
G0 F5400 X134.507 Y144.942
G1 F1800 X145.675 Y133.773 E49.72366
G0 F5400 X145.474 Y133.409
G1 F1800 X133.949 Y144.934 E50.15734
G0 F5400 X133.39 Y144.927
G1 F1800 X145.272 Y133.045 E50.60445
G0 F5400 X145.071 Y132.681
G1 F1800 X132.832 Y144.919 E51.06498
G0 F5400 X132.274 Y144.912
G1 F1800 X144.869 Y132.317 E51.53893
G0 F5400 X144.668 Y131.952
G1 F1800 X131.716 Y144.904 E52.02631
